Gruvbox-Material-Icons/places/scalable/folder-tomato-documents-open.svg

<svg width="256" height="256" style="isolation:isolate" version="1.1" viewBox="0 0 256 256" xmlns="http://www.w3.org/2000/svg">
  <path d="m53.7 21c-36.32 0-40.04 2.055-40.04 38.37v92.17h230v-71.98c0-36.32-3.724-42.1-40.04-42.1h-89.34l-16.43-16.46h-44.16z" fill="#cc241d"/>
  <g filter="url(#j2oCL8HdXBKgUg5ezWcJFWr1abr4Duio)">
    <path d="m40.77 56.67h176.1c5.758 0 10.43 4.675 10.43 10.43v83.47c0 5.758-4.675 10.43-10.43 10.43h-176.1c-5.759 0-10.43-4.675-10.43-10.43v-83.47c0-5.758 4.675-10.43 10.43-10.43z" fill="#ebdbb2"/>
  </g>
  <path d="m53.7 100.4c-36.32 0-40.04 3.73-40.04 40.04v54.52c0 36.32 3.721 40.05 40.04 40.05h149.9c36.32 0 40.04-3.731 40.04-40.05v-70.98c0-36.32-3.722-40.05-40.04-40.05h-83.43l-16.44 16.46h-50.05z" fill="#fb4934"/>
  <linearGradient id="_lgradient_2" x2="0" y1=".5" y2="-.5" gradientTransform="matrix(230 0 0 151.1 13.67 83.92)" gradientUnits="userSpaceOnUse">
    <stop stop-color="#ebdbb2" stop-opacity=".07" offset="0"/>
    <stop stop-color="#ebdbb2" stop-opacity="0" offset=".6728"/>
  </linearGradient>
  <path d="m53.7 100.4c-36.32 0-40.04 3.73-40.04 40.04v54.52c0 36.32 3.721 40.05 40.04 40.05h149.9c36.32 0 40.04-3.731 40.04-40.05v-70.98c0-36.32-3.722-40.05-40.04-40.05h-83.43l-16.44 16.46h-50.05z" fill="url(#_lgradient_2)"/>
  <g opacity=".4">
    <radialGradient id="_rgradient_4" cx=".5" cy=".5" r=".272" fy=".136" gradientTransform="matrix(230 0 0 60.62 13.67 21)" gradientUnits="userSpaceOnUse">
      <stop stop-color="#ebdbb2" offset="0"/>
      <stop stop-color="#ebdbb2" stop-opacity=".204" offset="1"/>
    </radialGradient>
    <path d="m53.7 21c-36.32 0-40.04 2.055-40.04 38.37v2.059c0-36.32 3.723-38.37 40.04-38.37h44.16l16.43 16.46h89.34c36.32 0 40.04 5.786 40.04 42.1v-2.057c0-36.32-3.724-42.1-40.04-42.1h-89.34l-16.43-16.46h-44.16z" fill="url(#_rgradient_4)"/>
    <radialGradient id="_rgradient_5" cx=".5" cy=".5" r=".272" fx=".482" fy=".211" gradientTransform="matrix(230 0 0 58.56 13.67 83.92)" gradientUnits="userSpaceOnUse">
      <stop stop-color="#ebdbb2" offset="0"/>
      <stop stop-color="#ebdbb2" stop-opacity=".204" offset="1"/>
    </radialGradient>
    <path d="m120.2 83.92-16.44 16.46h-50.05c-36.32 0-40.04 3.728-40.04 40.04v2.06c0-36.32 3.723-40.05 40.04-40.05h50.05l16.44-16.46h83.43c36.32 0 40.04 3.727 40.04 40.04v-2.057c0-36.32-3.724-40.04-40.04-40.04h-83.43z" fill="url(#_rgradient_5)"/>
  </g>
  <g opacity=".1">
    <path d="m243.7 167.1-65.72 65.84h25.68c36.32 0 40.04-3.727 40.04-40.04v-25.8z" fill="#ebdbb2"/>
  </g>
  <g opacity=".2">
    <path d="m13.67 192.9v2.057c0 36.32 3.723 40.04 40.04 40.04h149.9c36.32 0 40.04-3.729 40.04-40.04v-2.057c0 36.32-3.724 40.04-40.04 40.04h-149.9c-36.32 0-40.04-3.727-40.04-40.04z"/>
  </g>
  <path d="m90 117v100h63l17-17v-83h-80zm4 4h72v76h-16v16h-56v-92zm12 12v4h48v-4h-48zm0 12v4h48v-4h-48zm0 12v4h48v-4h-48zm0 12v4h24v-4h-24z" fill="#d5c4a1"/>
</svg>

<svg xmlns="http://www.w3.org/2000/svg" style="isolation:isolate" width="256" height="256" viewBox="0 0 256 256">
 <g>
  <path fill="#cc241d" d="M 53.705 21 C 17.39 21 13.667 23.055 13.667 59.371 L 13.667 151.538 L 243.667 151.538 L 243.667 79.563 C 243.667 43.247 239.943 37.461 203.628 37.461 L 114.292 37.461 L 97.864 21 L 53.705 21 Z"/>
  <defs>
   <filter id="j2oCL8HdXBKgUg5ezWcJFWr1abr4Duio" width="400%" height="400%" x="-200%" y="-200%" color-interpolation-filters="sRGB" filterUnits="objectBoundingBox">
    <feGaussianBlur xmlns="http://www.w3.org/2000/svg" in="SourceGraphic" stdDeviation="4.294"/>
    <feOffset xmlns="http://www.w3.org/2000/svg" dx="0" dy="0" result="pf_100_offsetBlur"/>
    <feFlood xmlns="http://www.w3.org/2000/svg" flood-opacity=".4"/>
    <feComposite xmlns="http://www.w3.org/2000/svg" in2="pf_100_offsetBlur" operator="in" result="pf_100_dropShadow"/>
    <feBlend xmlns="http://www.w3.org/2000/svg" in="SourceGraphic" in2="pf_100_dropShadow" mode="normal"/>
   </filter>
  </defs>
  <g filter="url(#j2oCL8HdXBKgUg5ezWcJFWr1abr4Duio)">
   <path fill="#ebdbb2" d="M 40.767 56.667 L 216.9 56.667 C 222.658 56.667 227.333 61.342 227.333 67.1 L 227.333 150.567 C 227.333 156.325 222.658 161 216.9 161 L 40.767 161 C 35.008 161 30.333 156.325 30.333 150.567 L 30.333 67.1 C 30.333 61.342 35.008 56.667 40.767 56.667 Z"/>
  </g>
  <path fill="#fb4934" d="M 53.705 100.384 C 17.388 100.384 13.667 104.114 13.667 140.429 L 13.667 194.953 C 13.667 231.269 17.388 235 53.705 235 L 203.628 235 C 239.945 235 243.667 231.269 243.667 194.953 L 243.667 123.969 C 243.667 87.653 239.945 83.922 203.628 83.922 L 120.197 83.922 L 103.759 100.384 L 53.705 100.384 Z"/>
  <linearGradient id="_lgradient_2" x1="0" x2="0" y1=".5" y2="-.5" gradientTransform="matrix(230,0,0,151.078,13.667,83.922)" gradientUnits="userSpaceOnUse">
   <stop offset="0%" stop-opacity=".07" style="stop-color:#ebdbb2"/>
   <stop offset="67.282%" stop-opacity="0" style="stop-color:#ebdbb2"/>
  </linearGradient>
  <path fill="url(#_lgradient_2)" d="M 53.705 100.384 C 17.388 100.384 13.667 104.114 13.667 140.429 L 13.667 194.953 C 13.667 231.269 17.388 235 53.705 235 L 203.628 235 C 239.945 235 243.667 231.269 243.667 194.953 L 243.667 123.969 C 243.667 87.653 239.945 83.922 203.628 83.922 L 120.197 83.922 L 103.759 100.384 L 53.705 100.384 Z"/>
  <g opacity=".4">
   <radialGradient id="_rgradient_4" cx=".5" cy=".5" r=".272" fx=".5" fy=".136" gradientTransform="matrix(230,0,0,60.62,13.667,21)" gradientUnits="userSpaceOnUse">
    <stop offset="0%" style="stop-color:#ebdbb2"/>
    <stop offset="100%" stop-opacity=".204" style="stop-color:#ebdbb2"/>
   </radialGradient>
   <path fill="url(#_rgradient_4)" d="M 53.705 21 C 17.39 21 13.667 23.055 13.667 59.371 L 13.667 61.43 C 13.667 25.114 17.39 23.057 53.705 23.057 L 97.864 23.057 L 114.292 39.518 L 203.628 39.518 C 239.943 39.518 243.667 45.304 243.667 81.62 L 243.667 79.563 C 243.667 43.247 239.943 37.461 203.628 37.461 L 114.292 37.461 L 97.864 21 L 53.705 21 Z"/>
  </g>
  <g opacity=".4">
   <radialGradient id="_rgradient_5" cx=".5" cy=".5" r=".272" fx=".482" fy=".211" gradientTransform="matrix(230,0,0,58.565,13.667,83.922)" gradientUnits="userSpaceOnUse">
    <stop offset="0%" style="stop-color:#ebdbb2"/>
    <stop offset="100%" stop-opacity=".204" style="stop-color:#ebdbb2"/>
   </radialGradient>
   <path fill="url(#_rgradient_5)" d="M 120.197 83.922 L 103.759 100.384 L 53.705 100.384 C 17.39 100.384 13.667 104.112 13.667 140.427 L 13.667 142.487 C 13.667 106.171 17.39 102.441 53.705 102.441 L 103.759 102.441 L 120.197 85.981 L 203.628 85.981 C 239.943 85.981 243.667 89.708 243.667 126.024 L 243.667 123.967 C 243.667 87.651 239.943 83.922 203.628 83.922 L 120.197 83.922 Z"/>
  </g>
  <g opacity=".1">
   <path fill="#ebdbb2" d="M 243.667 167.096 L 177.952 232.941 L 203.628 232.941 C 239.943 232.941 243.667 229.214 243.667 192.898 L 243.667 167.096 Z"/>
  </g>
  <g opacity=".2">
   <path d="M 13.667 192.898 L 13.667 194.955 C 13.667 231.271 17.39 235 53.705 235 L 203.628 235 C 239.943 235 243.667 231.271 243.667 194.955 L 243.667 192.898 C 243.667 229.214 239.943 232.941 203.628 232.941 L 53.705 232.941 C 17.39 232.941 13.667 229.214 13.667 192.898 Z"/>
  </g>
 </g>
 <path fill="#d5c4a1" d="M 90 117 L 90 217 L 153 217 L 170 200 L 170 117 L 90 117 Z M 94 121 L 166 121 L 166 197 L 150 197 L 150 213 L 94 213 L 94 121 Z M 106 133 L 106 137 L 154 137 L 154 133 L 106 133 Z M 106 145 L 106 149 L 154 149 L 154 145 L 106 145 Z M 106 157 L 106 161 L 154 161 L 154 157 L 106 157 Z M 106 169 L 106 173 L 130 173 L 130 169 L 106 169 Z"/>
</svg>
